X:161
T:Miss Lucy Long
M:6/8
L:1/8
K:F
G2A|\
B2B BAG|A2A AGF|G2c c2d|c2B GAB|
c3  edc|d2B G2E|F3  z2C|C2C C2C|G3 z2z|
C2E G2A|B3  c2B|A2F G2E|F3  ||
